icons/desktop/16/svg/webserial-16.svg

<svg width="16" height="16" viewBox="0 0 16 16" fill="none" xmlns="http://www.w3.org/2000/svg">
<path fill-rule="evenodd" clip-rule="evenodd" d="M8 1C9.35414 1 10.8879 1.06812 12.5615 1.26074C13.9499 1.42036 15 2.60179 15 3.99707V12.0059C15 13.3855 13.9763 14.5763 12.5859 14.7373C11.2006 14.8973 9.66484 15 8 15C6.64586 15 5.11208 14.9319 3.43848 14.7393C2.05011 14.5796 1 13.3982 1 12.0029V3.99414C1 2.61448 2.02371 1.42365 3.41406 1.2627C4.79938 1.10266 6.33516 1 8 1ZM8 2.5C6.39691 2.5 4.91858 2.59897 3.58594 2.75293C2.97243 2.82411 2.5 3.3559 2.5 3.99414V4.25H7.25195C7.68057 4.25 8.1028 4.35556 8.48242 4.55762L9.14258 4.90723C9.32242 4.80699 9.52962 4.75 9.75 4.75C10.44 4.75 11 5.31 11 6C11 6.69 10.44 7.25 9.75 7.25C9.06 7.25 8.5 6.69 8.5 6C8.5 5.99381 8.49991 5.98762 8.5 5.98145L7.89648 5.66113C7.69838 5.55557 7.47693 5.5 7.25195 5.5H2.5V8.25H5.66895C5.88527 7.87683 6.2879 7.625 6.75 7.625C7.44 7.625 8 8.185 8 8.875C8 9.565 7.44 10.125 6.75 10.125C6.2879 10.125 5.88527 9.87317 5.66895 9.5H2.5V12.0029C2.5 12.6376 2.97987 13.1765 3.60938 13.249C5.21967 13.4344 6.69621 13.5 8 13.5C9.60309 13.5 11.0814 13.401 12.4141 13.2471C13.0276 13.1759 13.5 12.6441 13.5 12.0059V11.75H11.3311C11.1147 12.1232 10.7121 12.375 10.25 12.375C9.56 12.375 9 11.815 9 11.125C9 10.435 9.56 9.875 10.25 9.875C10.7121 9.875 11.1147 10.1268 11.3311 10.5H13.5V3.99707C13.5 3.36244 13.0201 2.82349 12.3906 2.75098C10.7803 2.56563 9.30379 2.5 8 2.5Z" fill="black"/>
</svg>

<!-- This Source Code Form is subject to the terms of the Mozilla Public
   - License, v. 2.0. If a copy of the MPL was not distributed with this
   - file, You can obtain one at http://mozilla.org/MPL/2.0/. -->
<svg xmlns="http://www.w3.org/2000/svg" width="16" height="16" fill="context-fill" fill-opacity="context-fill-opacity" viewBox="0 0 16 16">
    <path fill-rule="evenodd" d="M8 1c1.354 0 2.888.068 4.562.26A2.76 2.76 0 0 1 15 3.998v8.009c0 1.38-1.024 2.57-2.414 2.731a40 40 0 0 1-9.148.002A2.76 2.76 0 0 1 1 12.003V3.994c0-1.38 1.024-2.57 2.414-2.731A40 40 0 0 1 8 1m0 1.5c-1.603 0-3.081.099-4.414.253A1.24 1.24 0 0 0 2.5 3.994v.256h4.752c.429 0 .85.106 1.23.308l.66.35A1.25 1.25 0 1 1 8.5 6l.001-.02-.604-.32a1.4 1.4 0 0 0-.644-.161H2.5v2.75h3.169A1.249 1.249 0 0 1 8 8.875a1.25 1.25 0 0 1-2.331.625H2.5v2.503c0 .635.48 1.174 1.11 1.246a38.487 38.487 0 0 0 8.805-.002 1.24 1.24 0 0 0 1.085-1.241v-.256h-2.169A1.249 1.249 0 0 1 9 11.125a1.25 1.25 0 0 1 2.331-.625H13.5V3.997c0-.635-.48-1.174-1.11-1.246A38 38 0 0 0 8 2.5" clip-rule="evenodd" />
</svg>
